Yaru++/apps/scalable/google-drive.svg

<svg height="256" width="256" xmlns="http://www.w3.org/2000/svg" xmlns:xlink="http://www.w3.org/1999/xlink">
  <filter id="filter833" color-interpolation-filters="sRGB" height="1.026" width="1.022" x="-.01" y="-.01">
    <feGaussianBlur stdDeviation=".153"/>
  </filter>
  <filter id="filter859" color-interpolation-filters="sRGB" height="1.103" width="1.09" x="-.04" y="-.05">
    <feGaussianBlur stdDeviation=".611"/>
  </filter>
  <g transform="matrix(7 0 0 7 16.534674 10.352502)">
    <path d="m10.870605 1.7855799 10.941964 19.3392851h-12.0512703l5.9137393-10.840008zm0 0-11.19642907 18.3214281 5.04583357 10.091951-.047996.08662h22.0773325l5.40481-9.160714h.09145l-11.19643-19.3392851z" fill="#000103" filter="url(#filter859)" opacity=".1"/>
    <path d="m10.870605 1.7855799 10.941964 19.3392851h-12.0512703l5.9137393-10.840008zm0 0-11.19642907 18.3214281 5.04583357 10.091951-.047996.08662h22.0773325l5.40481-9.160714h.09145l-11.19643-19.3392851z" fill="#000103" filter="url(#filter833)" opacity=".1"/>
    <path d="m10.870605 1.7855799 10.941964 19.3392851h-12.0512703l5.9137393-10.840008zm0 0-11.19642907 18.3214281 5.04583357 10.091951-.047996.08662h22.0773325l5.40481-9.160714h.09145l-11.19643-19.3392851z" fill="#000103" opacity=".1"/>
    <path d="m31.87 21h-22l-5 9h21.69" fill="#537abd"/>
    <path d="m10.96 2-11 18 5 10 10.72-19.65" fill="#2eb672"/>
    <path d="m20.96 2h-10l10.75 19h10.25z" fill="#fed14b"/>
    <g transform="matrix(.14285714 0 0 .14285714 -2.362096 -1.478929)">
      <path d="m93.253906 24.351562 1.13086 2h68.869144l75.84179 130.999998h1.15821l-77-132.999998z" fill="#fff" opacity=".3"/>
      <path d="m93.253906 24.351562-77 125.999998.550782 1.09961 76.449218-125.099608 32.486324 57.46875.55469-1.017578z" fill="#fff" opacity=".3"/>
      <path d="m85.625 157.35156-35 63h1.111328l33.888672-61h152.82031l1.17969-2z" fill="#fff" opacity=".3"/>
      <path d="m125.74023 81.820312-74.486324 136.531248-34.449218-68.90039-.550782.90039 35 70 75.041014-137.548826z" fill="#0f0f0f" opacity=".2"/>
      <path d="m93.253906 24.351562 75.250004 132.999998h71.75l-1.15821-2h-70.59179l-74.119144-130.999998z" fill="#0f0f0f" opacity=".2"/>
      <path d="m238.44531 157.35156-35.99023 61h-150.718752l-1.111328 2h151.83008l37.16992-63z" fill="#0f0f0f" opacity=".2"/>
    </g>
  </g>
</svg>

<svg xmlns="http://www.w3.org/2000/svg" width="256" height="256" version="1.1">
 <defs>
  <filter style="color-interpolation-filters:sRGB" id="filter833" width="1.022" height="1.026" x="-.01" y="-.01">
   <feGaussianBlur id="feGaussianBlur835" stdDeviation=".153"/>
  </filter>
  <filter style="color-interpolation-filters:sRGB" id="filter859" width="1.09" height="1.103" x="-.04" y="-.05">
   <feGaussianBlur id="feGaussianBlur861" stdDeviation=".611"/>
  </filter>
 </defs>
 <g transform="matrix(7,0,0,7,16.534674,10.352502)">
  <path style="fill:#000103;opacity:0.1;filter:url(#filter859)" d="M 10.870605,1.7855799 21.812569,21.124865 H 9.7612987 L 15.675038,10.284857 Z m 0,0 -11.19642907,18.3214281 5.04583357,10.091951 -0.047996,0.08662 H 26.749346 l 5.40481,-9.160714 h 0.09145 L 21.049176,1.7855799 Z"/>
  <path d="M 10.870605,1.7855799 21.812569,21.124865 H 9.7612987 L 15.675038,10.284857 Z m 0,0 -11.19642907,18.3214281 5.04583357,10.091951 -0.047996,0.08662 H 26.749346 l 5.40481,-9.160714 h 0.09145 L 21.049176,1.7855799 Z" style="fill:#000103;opacity:0.1;filter:url(#filter833)"/>
  <path style="fill:#000103;opacity:0.1" id="polyline820" d="M 10.870605,1.7855799 21.812569,21.124865 H 9.7612987 L 15.675038,10.284857 Z m 0,0 -11.19642907,18.3214281 5.04583357,10.091951 -0.047996,0.08662 H 26.749346 l 5.40481,-9.160714 h 0.09145 L 21.049176,1.7855799 Z"/>
  <polyline style="fill:#537abd" id="polyline2" points="31.87 21 9.87 21 4.87 30 26.56 30"/>
  <polyline style="fill:#2eb672" id="polyline4" points="10.96 2 -.04 20 4.96 30 15.68 10.35"/>
  <polyline style="fill:#fed14b" id="polyline6" points="20.96 2 10.96 2 21.71 21 31.96 21 20.96 2"/>
  <path style="fill:#ffffff;opacity:0.3" id="polyline863" d="M 93.253906 24.351562 L 94.384766 26.351562 L 163.25391 26.351562 L 239.0957 157.35156 L 240.25391 157.35156 L 163.25391 24.351562 L 93.253906 24.351562 z" transform="matrix(0.14285714,0,0,0.14285714,-2.3620963,-1.4789289)"/>
  <path style="fill:#ffffff;opacity:0.3" id="polyline868" d="M 93.253906 24.351562 L 16.253906 150.35156 L 16.804688 151.45117 L 93.253906 26.351562 L 125.74023 83.820312 L 126.29492 82.802734 L 93.253906 24.351562 z" transform="matrix(0.14285714,0,0,0.14285714,-2.3620963,-1.4789289)"/>
  <path style="fill:#ffffff;opacity:0.3" id="polyline873" d="M 85.625 157.35156 L 50.625 220.35156 L 51.736328 220.35156 L 85.625 159.35156 L 238.44531 159.35156 L 239.625 157.35156 L 85.625 157.35156 z" transform="matrix(0.14285714,0,0,0.14285714,-2.3620963,-1.4789289)"/>
  <path style="fill:#0f0f0f;opacity:0.2" id="polyline878" d="M 125.74023 81.820312 L 51.253906 218.35156 L 16.804688 149.45117 L 16.253906 150.35156 L 51.253906 220.35156 L 126.29492 82.802734 L 125.74023 81.820312 z" transform="matrix(0.14285714,0,0,0.14285714,-2.3620963,-1.4789289)"/>
  <path style="fill:#0f0f0f;opacity:0.2" id="polyline883" d="M 93.253906 24.351562 L 168.50391 157.35156 L 240.25391 157.35156 L 239.0957 155.35156 L 168.50391 155.35156 L 94.384766 24.351562 L 93.253906 24.351562 z" transform="matrix(0.14285714,0,0,0.14285714,-2.3620963,-1.4789289)"/>
  <path style="fill:#0f0f0f;opacity:0.2" id="polyline888" d="M 238.44531 157.35156 L 202.45508 218.35156 L 51.736328 218.35156 L 50.625 220.35156 L 202.45508 220.35156 L 239.625 157.35156 L 238.44531 157.35156 z" transform="matrix(0.14285714,0,0,0.14285714,-2.3620963,-1.4789289)"/>
 </g>
</svg>
